X: 3
T: The Tempest
R: reel
M: 4/4
L: 1/8
K: Cmaj
|:d2 ed cAGA|Addc AGEG|d2 ed cdef|edce d2 ag|efdf edcA|cAGc AGFE|DEFA GEcE|EDcG ED D2:|


Tune 1004	Setting 14222

